pix_core/i/payment.svg

<svg preserveAspectRatio="xMinYMid meet" viewBox="0 0 576 512" xmlns="http://www.w3.org/2000/svg"><path d="m64 32c-35.3 0-64 28.7-64 64v32h576v-32c0-35.3-28.7-64-64-64zm512 192h-576v192c0 35.3 28.7 64 64 64h448c35.3 0 64-28.7 64-64zm-464 128h64c8.8 0 16 7.2 16 16s-7.2 16-16 16h-64c-8.8 0-16-7.2-16-16s7.2-16 16-16zm112 16c0-8.8 7.2-16 16-16h128c8.8 0 16 7.2 16 16s-7.2 16-16 16h-128c-8.8 0-16-7.2-16-16z" fill="#fff"/></svg>

<svg xmlns="http://www.w3.org/2000/svg" viewBox="0 0 576 512" preserveAspectRatio="xMinYMid meet"><!--!Font Awesome Free 6.5.2 by @fontawesome - https://fontawesome.com License - https://fontawesome.com/license/free Copyright 2024 Fonticons, Inc.--><path fill="#fff" d="M64 32C28.7 32 0 60.7 0 96v32H576V96c0-35.3-28.7-64-64-64H64zM576 224H0V416c0 35.3 28.7 64 64 64H512c35.3 0 64-28.7 64-64V224zM112 352h64c8.8 0 16 7.2 16 16s-7.2 16-16 16H112c-8.8 0-16-7.2-16-16s7.2-16 16-16zm112 16c0-8.8 7.2-16 16-16H368c8.8 0 16 7.2 16 16s-7.2 16-16 16H240c-8.8 0-16-7.2-16-16z"/></svg>
